!!!SOCIAL_FUNCTION:	war songs
!!!PDT:	1932
!!!OTL: No_127_Song_of_Enlistment_in_the_Civil_War.krn
!!!REG: Wisconsin
!!!LANG: Non-Tone
!!!LING_GROUP: Algonquin
**kern
*staff1
=1-
*clefF4
*k[f#]
*M3/4
16d\LL
16d\
16d\
16d\JJ
8d\L
8d\J
4d\
=2
16B\LL
16B\
16B\
16B\JJ
8G\L
8G\J
4G\
=3!|:
16G\LL
16G\
16G\
16G\JJ
8E\L
8D\J
8D\
8r
=4||
*M2/4
8G\L
8G\J
4G\
=5||
*M3/4
16A\LL
16A\
16A\
16A\JJ
8c\L
8B\J
4B\
=6
16A\LL
16A\
16A\
16A\JJ
8G\L
8G\J
8G\
8r
=7
16B\LL
16B\
16B\
16B\JJ
8G\L
8G\J
4G\
=8
16E\LL
16D\
16D\
16D\JJ
8F#\L
8E\J
4D\
=9
16BB/LL
16BB/
16BB/
16BB/JJ
8BB/L
8BB/J
8GG/
8r
=10
16BB/LL
16BB/
16BB/
16BB/JJ
8D\L
8D\J
4BB/
=11
16BB/LL
16BB/
16BB/
16BB/JJ
8BB/L
8BB/J
8GG/
8r
=12||
*M2/4
8d\L
8d\J
4d\
=13
8d\L
8d\J
4d\
=14||
*M3/4
16c\LL
16c\
16c\
16c\JJ
8A\L
8G\J
4G\
==:|!
*-
